source/img/Finger.svg

<svg width="48" height="48" viewBox="0 0 48 48" fill="none" xmlns="http://www.w3.org/2000/svg">
<path fill-rule="evenodd" clip-rule="evenodd" d="M27.9125 13.3077C27.2391 9.98273 23.8608 7.76175 20.4242 8.67818L13.3653 10.5605C11.0723 11.172 9.38318 13.052 8.97101 15.3245H3.22681C1.89019 15.3245 0.806642 16.4081 0.806642 17.7447L0.806641 37.106C0.806641 38.4427 1.89018 39.5262 3.22681 39.5262H26.4824C29.4064 39.5262 31.9121 37.435 32.4352 34.5581L34.0987 25.4086H34.6819L40.9305 25.3468C44.2317 25.3142 46.8907 22.6288 46.8907 19.3274C46.8907 16.0028 44.1956 13.3077 40.871 13.3077L27.9125 13.3077ZM25.7813 17.3413L23.9999 17.3413V14.5243C23.9999 13.1992 22.7438 12.2342 21.4635 12.5756L14.4047 14.4579C13.5218 14.6934 12.9075 15.4929 12.9075 16.4067L12.9075 35.4926L26.4824 35.4926C27.457 35.4926 28.2923 34.7955 28.4666 33.8366L30.7332 21.3749L34.6619 21.3749L40.8906 21.3134C41.9798 21.3026 42.8571 20.4166 42.8571 19.3274C42.8571 18.2305 41.9679 17.3413 40.871 17.3413L28.0336 17.3413L25.7813 17.3413ZM8.87389 35.4926L8.87389 19.3581H4.84026L4.84025 35.4926H8.87389Z" fill="#CECFDB"/>
</svg>

<svg width="48" height="48" fill="none" xmlns="http://www.w3.org/2000/svg"><path fill-rule="evenodd" clip-rule="evenodd" d="M27.913 13.308c-.674-3.325-4.052-5.546-7.489-4.63l-7.059 1.882a6.052 6.052 0 0 0-4.394 4.764H3.227a2.42 2.42 0 0 0-2.42 2.42v19.362a2.42 2.42 0 0 0 2.42 2.42h23.255a6.05 6.05 0 0 0 5.953-4.968l1.664-9.15h.583l6.248-.061a6.02 6.02 0 0 0-.059-12.04H27.912ZM25.78 17.34H24v-2.817a2.017 2.017 0 0 0-2.537-1.948l-7.058 1.882a2.017 2.017 0 0 0-1.497 1.949v19.086h13.574c.975 0 1.81-.698 1.985-1.656l2.266-12.462h3.929l6.229-.062a1.986 1.986 0 0 0-.02-3.972h-15.09ZM8.874 35.493V19.358H4.84v16.135h4.034Z" fill="#CECFDB"/></svg>
